symbols/web/soap/materialsymbolsoutlined/soap_wght300_24px.svg

<svg xmlns="http://www.w3.org/2000/svg" height="24" width="24"><path d="M14.25 8.05q.375 0 .637-.275.263-.275.263-.65 0-.35-.263-.625-.262-.275-.637-.275t-.637.275q-.263.275-.263.625 0 .375.263.65.262.275.637.275Zm0 1.175q-.875 0-1.488-.6-.612-.6-.612-1.5 0-.875.612-1.475.613-.6 1.488-.6t1.488.6q.612.6.612 1.475 0 .9-.612 1.5-.613.6-1.488.6ZM19.8 7.05q.275 0 .463-.2.187-.2.187-.475 0-.25-.187-.45-.188-.2-.463-.2-.25 0-.45.2t-.2.45q0 .275.2.475.2.2.45.2Zm0 1.175q-.75 0-1.3-.538-.55-.537-.55-1.312 0-.75.55-1.288.55-.537 1.3-.537.775 0 1.313.537.537.538.537 1.288 0 .775-.537 1.312-.538.538-1.313.538Zm-3.3-3.95q-.575 0-.975-.413-.4-.412-.4-.987t.4-.975q.4-.4.975-.4t.975.4q.4.4.4.975t-.4.987q-.4.413-.975.413ZM4.375 21.75q-1.075 0-1.825-.762-.75-.763-.75-1.838v-4.975q0-.55.213-1.038.212-.487.612-.837L9.1 6.125l.9.95q.2.2.213.45.012.25-.113.5l-1.525 2.65h9.5q.375 0 .637.287.263.288.263.688 0 .425-.287.7-.288.275-.688.275h-6.4V13.7h8.25q.4 0 .688.287.287.288.287.713 0 .4-.287.687-.288.288-.688.288H11.6v1.075h7.325q.4 0 .688.288.287.287.287.687 0 .425-.287.7-.288.275-.688.275H11.6v1.1h5.475q.425 0 .7.275.275.275.275.7 0 .4-.275.687-.275.288-.7.288Zm0-1.5H10.1v-8.075h-3V10.1l-3.425 3.225q-.125.075-.25.312-.125.238-.125.563v4.95q0 .45.313.775.312.325.762.325ZM6.7 15.175Z"/></svg>

<svg xmlns="http://www.w3.org/2000/svg" height="24" width="24"><path d="M14.25 8.05Q14.625 8.05 14.887 7.775Q15.15 7.5 15.15 7.125Q15.15 6.775 14.887 6.5Q14.625 6.225 14.25 6.225Q13.875 6.225 13.613 6.5Q13.35 6.775 13.35 7.125Q13.35 7.5 13.613 7.775Q13.875 8.05 14.25 8.05ZM14.25 9.225Q13.375 9.225 12.762 8.625Q12.15 8.025 12.15 7.125Q12.15 6.25 12.762 5.65Q13.375 5.05 14.25 5.05Q15.125 5.05 15.738 5.65Q16.35 6.25 16.35 7.125Q16.35 8.025 15.738 8.625Q15.125 9.225 14.25 9.225ZM19.8 7.05Q20.075 7.05 20.263 6.85Q20.45 6.65 20.45 6.375Q20.45 6.125 20.263 5.925Q20.075 5.725 19.8 5.725Q19.55 5.725 19.35 5.925Q19.15 6.125 19.15 6.375Q19.15 6.65 19.35 6.85Q19.55 7.05 19.8 7.05ZM19.8 8.225Q19.05 8.225 18.5 7.687Q17.95 7.15 17.95 6.375Q17.95 5.625 18.5 5.087Q19.05 4.55 19.8 4.55Q20.575 4.55 21.113 5.087Q21.65 5.625 21.65 6.375Q21.65 7.15 21.113 7.687Q20.575 8.225 19.8 8.225ZM16.5 4.275Q15.925 4.275 15.525 3.862Q15.125 3.45 15.125 2.875Q15.125 2.3 15.525 1.9Q15.925 1.5 16.5 1.5Q17.075 1.5 17.475 1.9Q17.875 2.3 17.875 2.875Q17.875 3.45 17.475 3.862Q17.075 4.275 16.5 4.275ZM4.375 21.75Q3.3 21.75 2.55 20.988Q1.8 20.225 1.8 19.15V14.175Q1.8 13.625 2.013 13.137Q2.225 12.65 2.625 12.3L9.1 6.125L10 7.075Q10.2 7.275 10.213 7.525Q10.225 7.775 10.1 8.025L8.575 10.675H18.075Q18.45 10.675 18.712 10.962Q18.975 11.25 18.975 11.65Q18.975 12.075 18.688 12.35Q18.4 12.625 18 12.625H11.6V13.7H19.85Q20.25 13.7 20.538 13.987Q20.825 14.275 20.825 14.7Q20.825 15.1 20.538 15.387Q20.25 15.675 19.85 15.675H11.6V16.75H18.925Q19.325 16.75 19.613 17.038Q19.9 17.325 19.9 17.725Q19.9 18.15 19.613 18.425Q19.325 18.7 18.925 18.7H11.6V19.8H17.075Q17.5 19.8 17.775 20.075Q18.05 20.35 18.05 20.775Q18.05 21.175 17.775 21.462Q17.5 21.75 17.075 21.75ZM4.375 20.25H10.1V12.175H7.1V10.1L3.675 13.325Q3.55 13.4 3.425 13.637Q3.3 13.875 3.3 14.2V19.15Q3.3 19.6 3.613 19.925Q3.925 20.25 4.375 20.25ZM6.7 15.175Q6.7 15.175 6.7 15.175Q6.7 15.175 6.7 15.175Q6.7 15.175 6.7 15.175Q6.7 15.175 6.7 15.175Z"/></svg>
